file/dhl.svg

<svg clip-rule="evenodd" fill-rule="evenodd" stroke-linejoin="round" stroke-miterlimit="1.41421" viewBox="0 0 560 400" xmlns="http://www.w3.org/2000/svg"><g fill-rule="nonzero" transform="matrix(2.32042 0 0 2.32042 76.095 155)"><path d="m0 0h175.748v38.786h-175.748z" fill="#fecc00"/><path d="m56.665 16.206c-.768 1.04-2.053 2.848-2.835 3.904-.397.537-1.114 1.512 1.263 1.512h12.515s2.017-2.744 3.708-5.039c2.3-3.122.199-9.618-8.024-9.618h-32.384l-5.615 7.629h30.603c1.545 0 1.524.588.769 1.612zm-9.194 7.298c-2.377 0-1.66-.977-1.263-1.514.782-1.056 2.088-2.845 2.856-3.885.756-1.024.776-1.612-.771-1.612h-13.996l-11.277 15.326h27.501c9.083 0 14.14-6.178 15.699-8.314 0-.001-16.235-.001-18.749-.001zm17.89 8.315h16.133l6.116-8.316-16.131.002c-.005-.001-6.118 8.314-6.118 8.314zm41.625-24.854-6.188 8.405h-7.2l6.185-8.405h-16.128l-10.79 14.657h39.46l10.787-14.657zm-18.292 24.854h16.127l6.119-8.314h-16.127c-.006-.001-6.119 8.314-6.119 8.314zm-88.694-5.035v1.766h22.468l1.298-1.766zm26.181-3.28h-26.181v1.764h24.88zm-26.181 8.315h20.061l1.292-1.756h-21.353zm152.072-3.27h23.676v-1.766h-22.376zm-2.405 3.27h26.081v-1.756h-24.79zm6.116-8.315-1.297 1.766h21.262v-1.766zm-21.124-1.882 10.789-14.657h-17.081c-.006 0-10.797 14.657-10.797 14.657zm-18.472 1.882s-1.179 1.611-1.752 2.387c-2.025 2.736-.234 5.928 6.376 5.928h25.901l6.119-8.314h-36.644z" fill="#d50029"/></g></svg>

<?xml version="1.0" encoding="UTF-8" standalone="no"?>
<!DOCTYPE svg PUBLIC "-//W3C//DTD SVG 1.1//EN" "http://www.w3.org/Graphics/SVG/1.1/DTD/svg11.dtd">
<svg width="100%" height="100%" viewBox="0 0 560 400" version="1.1" xmlns="http://www.w3.org/2000/svg" xmlns:xlink="http://www.w3.org/1999/xlink" xml:space="preserve" xmlns:serif="http://www.serif.com/" style="fill-rule:evenodd;clip-rule:evenodd;stroke-linejoin:round;stroke-miterlimit:1.41421;">
    <g transform="matrix(2.32042,0,0,2.32042,76.095,155)">
        <rect x="0" y="0" width="175.748" height="38.786" style="fill:rgb(254,204,0);fill-rule:nonzero;"/>
        <path d="M56.665,16.206C55.897,17.246 54.612,19.054 53.83,20.11C53.433,20.647 52.716,21.622 55.093,21.622L67.608,21.622C67.608,21.622 69.625,18.878 71.316,16.583C73.616,13.461 71.515,6.965 63.292,6.965L30.908,6.965L25.293,14.594L55.896,14.594C57.441,14.594 57.42,15.182 56.665,16.206ZM47.471,23.504C45.094,23.504 45.811,22.527 46.208,21.99C46.99,20.934 48.296,19.145 49.064,18.105C49.82,17.081 49.84,16.493 48.293,16.493L34.297,16.493L23.02,31.819L50.521,31.819C59.604,31.819 64.661,25.641 66.22,23.505C66.22,23.504 49.985,23.504 47.471,23.504ZM65.361,31.819L81.494,31.819L87.61,23.503L71.479,23.505C71.474,23.504 65.361,31.819 65.361,31.819ZM106.986,6.965L100.798,15.37L93.598,15.37L99.783,6.965L83.655,6.965L72.865,21.622L112.325,21.622L123.112,6.965L106.986,6.965ZM88.694,31.819L104.821,31.819L110.94,23.505L94.813,23.505C94.807,23.504 88.694,31.819 88.694,31.819ZM0,26.784L0,28.55L22.468,28.55L23.766,26.784L0,26.784ZM26.181,23.504L0,23.504L0,25.268L24.88,25.268L26.181,23.504ZM0,31.819L20.061,31.819L21.353,30.063L0,30.063L0,31.819ZM152.072,28.549L175.748,28.549L175.748,26.783L153.372,26.783L152.072,28.549ZM149.667,31.819L175.748,31.819L175.748,30.063L150.958,30.063L149.667,31.819ZM155.783,23.504L154.486,25.27L175.748,25.27L175.748,23.504L155.783,23.504ZM134.659,21.622L145.448,6.965L128.367,6.965C128.361,6.965 117.57,21.622 117.57,21.622L134.659,21.622ZM116.187,23.504C116.187,23.504 115.008,25.115 114.435,25.891C112.41,28.627 114.201,31.819 120.811,31.819L146.712,31.819L152.831,23.505L116.187,23.505L116.187,23.504Z" style="fill:rgb(213,0,41);fill-rule:nonzero;"/>
    </g>
</svg>
